X:1
T:Glasgow, CM
T:Glasgow, CM
T:Moore’s Psalm Singer’s Pocket Companion, 1756
T:Public Domain Courtesy of the Cyber Hymnal™
C:Moore’s Psalm Singer’s Pocket Companion, 1756
Z:Public Domain
Z:Courtesy of the Cyber Hymnal™
%%score ( 1 2 ) ( 3 4 )
L:1/8
Q:1/4=180
M:3/2
K:G
V:1 treble 
V:2 treble 
V:3 bass 
V:4 bass 
V:1
 [B,D]4 | [DG]8 [FA]4 | [GB]3 [FA] G4 [GB]4 | d3 e d4 [Fc]4 | [GB]8 [GB]4 | [EA]8 [Ac]4 | %6
 [GB]3 [EA] [DG]4 [DF]4 | [DG]8 [Gd]4 | d8 [GB]4 | c8 [Ge]4 | d4 [Fc]4 [GB]4 | [FA]8 [Fd]4 | %12
 G4 [DA]4 [GB]4 | c4 B4 [FA]4 | G8 |] %15
V:2
 x4 | x12 | x12 | G8 x4 | x12 | x12 | x12 | x12 | A4 G4 x4 | G3 =F E4 x4 | D3 E x8 | x12 | x12 | %13
 G8 x4 | G8 |] %15
V:3
 [G,,G,]4 | [B,,D]8 [D,D]4 | [G,D]3 [A,C] B,4 [G,D]4 | B,3 C B,4 [D,A,]4 | [G,,G,]8 [G,D]4 | %5
 [C,C]8 [A,,E]4 | [B,,D]3 [C,C] [D,B,]4 [D,A,]4 | [G,,B,]8 [G,B,]4 | D3 C [G,B,]4 [=F,D]4 | %9
 C8 [C,G,]4 | [B,,G,]4 [A,,A,]4 B,2 ^C2 | [D,D]8 D2 ^C2 | [E,B,]4 [F,D]4 [G,D]4 | %13
 [C,E]4 [D,D]4 D2 C2 | [G,,B,]8 |] %15
V:4
 x4 | x12 | x12 | D,8 x4 | x12 | x12 | x12 | x12 | =F,4 x8 | E,3 D, C,4 x4 | x8 G,,4 | x8 D,4 | %12
 x12 | x8 D,4 | x8 |] %15

